packages/IcoMoon/src/DropboxIcon/index.svg

<svg version="1.1" xmlns="http://www.w3.org/2000/svg" width="16" height="16" viewBox="0 0 16 16">
<path d="M11.5 0.5l-3.5 3 4.5 3 3.5-3z"></path>
<path d="M8 3.5l-3.5-3-4.5 3 3.5 3z"></path>
<path d="M12.5 6.5l3.5 3-4.5 2.5-3.5-3z"></path>
<path d="M8 9l-4.5-2.5-3.5 3 4.5 2.5z"></path>
<path d="M11.377 13.212l-3.377-2.895-3.377 2.895-2.123-1.179v1.467l5.5 2.5 5.5-2.5v-1.467z"></path>
</svg>

<svg xmlns="http://www.w3.org/2000/svg" viewBox="0 0 16 16">
  <path d="M11.5.5L8 3.5l4.5 3 3.5-3zM8 3.5L4.5.5 0 3.5l3.5 3zm4.5 3l3.5 3-4.5 2.5L8 9zM8 9L3.5 6.5 0 9.5 4.5 12z"/>
  <path d="M11.377 13.212L8 10.317l-3.377 2.895L2.5 12.033V13.5L8 16l5.5-2.5v-1.467z"/>
</svg>
